source/img/press/search.svg

<svg width="34" height="34" viewBox="0 0 34 34" fill="none" xmlns="http://www.w3.org/2000/svg">
<path d="M32.0499 30.3123C32.4721 30.6776 33.1134 30.6472 33.4822 30.2443C33.851 29.8414 33.8077 29.2186 33.3855 28.8533L32.0499 30.3123ZM23.6574 23.0498L32.0499 30.3123L33.3855 28.8533L24.993 21.5908L23.6574 23.0498Z" fill="black"/>
<path d="M26.7909 12.9536C27.705 19.299 23.2538 25.117 16.8319 25.9356C10.4099 26.7542 4.47313 22.2603 3.55899 15.915C2.64485 9.56959 7.09607 3.75162 13.518 2.93302C19.94 2.11442 25.8768 6.60825 26.7909 12.9536Z" stroke="black" stroke-width="2"/>
</svg>

<svg width="34" height="34" fill="none" xmlns="http://www.w3.org/2000/svg"><path d="M32.05 30.312a1.035 1.035 0 001.432-.068.967.967 0 00-.096-1.39l-1.336 1.458zm-8.393-7.262l8.393 7.262 1.336-1.459-8.393-7.262-1.336 1.459z" fill="#000"/><path d="M26.79 12.954c.915 6.345-3.536 12.163-9.958 12.982-6.422.818-12.359-3.676-13.273-10.021C2.645 9.57 7.096 3.752 13.518 2.933c6.422-.819 12.359 3.675 13.273 10.02z" stroke="#000" stroke-width="2"/></svg>
